X:154
T:Stolen Breeks, The
T:Briogais Mhic R\`uairidh
R:Slow Air
S:Simon Fraser Collection
N:No.147
O:Scottish
M:6/8
L:1/8
Q:3/8=80
K:C Minor
C|E>FG BGB|G2c cze|c>BA GAF|G2C CzC|E>FG BGB|Gcd edc|
c>BA GAF|E2C Cz:|
|:G|c>dc BAG|edc BAG|cde dc=B|c2C CzC|E>FG BGB|Gcd edc|
cGA GAF|E2C Cz:|

